X: 110766
T: Kilnadeema Fancy
C:  B.Black
N: for Joe and Ann
L: 1/8
M: 6/8
R: jig
K: G
D | GBB BAB | cBA G2 A | Bdd edd | gdd edB |
GBB BAB | cBA B2 c | dBG DFA | G3 G2 :|
A | Beg fed | gab gfe | Beg fef | dBd e2 d |
Beg fef | gdB c2 e | dge fga | g3 g2 :|
